X: 15379
T: Glaspaa
R: hornpipe
M: 4/4
K: Gmajor
|:dc|(3.B.dB GB (3.A.c.A FA|Gg fg ed BG|(3FGA DF AB cd|ec Bc A2 dc|
(3.B.d.B GB (3.A.c.A FA|Gg fg ed BG|FG AB ce dc|B2 G2 G2:|
|:(3.A.B.c|dg fg bg fg|dg fg ed BG|(3.F.G.A|DF AB cd|ec Bc A2 dc|
(3.B.c.B GB (3.A.c.A FA|Gg fg ed BG|FG AB ce dc|B2 G2 G2:|

